X:131
T: Die elfjaehrige Markgraefin
N: Q1053I
O: Mitteleuropa, Deutschland
N: Melodievergleich zu Q0053 , anderes Lied, aber textverwandt.
N: Sog. "Normalform" in kleinen Noten gedruckt. Fettgedruckte
N: Noten kodiert. ! Ungenuegend dokumentiert !
R: Ballade, Braut - Werbung, Hochzeit, Minderjaehrige, Tod
M: 2/2
L: 1/4
K: F
C | FGAF | c2G2 | F3
c | cdec | f2d2 | c3
c | fedc | fed
C | FGAB | c2G2 | F3

@@@ Tune index: 867
